rospo-icon-theme-classic-common/64x64/places/folder-black-development.svg

<svg height="64" width="64" xmlns="http://www.w3.org/2000/svg"><rect height="32" opacity=".2" rx="2.5" width="50" x="7" y="24"/><path d="m7 44.5c0 1.385 1.115 2.5 2.5 2.5h45c1.385 0 2.5-1.115 2.5-2.5v-27c0-1.385-1.115-2.5-2.5-2.5h-25.5v-2.5c0-1.385-1.115-2.5-2.5-2.5h-17c-1.385 0-2.5 1.115-2.5 2.5" fill="#3f3f3f"/><rect height="32" opacity=".2" rx="2.5" width="50" x="7" y="22"/><rect fill="#dcdcdc" height="20" rx="2.5" width="44" x="10" y="18"/><rect fill="#4f4f4f" height="32" rx="2.5" width="50" x="7" y="23"/><path d="m9.5 10c-1.385 0-2.5 1.115-2.5 2.5v1c0-1.385 1.115-2.5 2.5-2.5h17c1.385 0 2.5 1.115 2.5 2.5v-1c0-1.385-1.115-2.5-2.5-2.5zm19.5 5v1h25.5c1.39 0 2.5 1.115 2.5 2.5v-1c0-1.385-1.11-2.5-2.5-2.5z" fill="#fff" opacity=".1"/><path d="m29.476 29v .004l-.222 2.633a7.9283 7.8567 0 0 0 -2.317 1.328l-2.414-1.129-2.523 4.332 2.195 1.512a7.9283 7.8567 0 0 0 -.125 1.324 7.9283 7.8567 0 0 0  .117 1.332l-2.187 1.5 2.523 4.332 2.41-1.129a7.9283 7.8567 0 0 0 2.324 1.324l.219 2.637h5.047l.223-2.633a7.9283 7.8567 0 0 0 2.316-1.328l2.414 1.125 2.524-4.328-2.191-1.508a7.9283 7.8567 0 0 0  .117-1.328 7.9283 7.8567 0 0 0 -.117-1.328l2.188-1.508-2.52-4.328-2.414 1.125a7.9283 7.8567 0 0 0 -2.32-1.32l-.219-2.641h-5.047zm2.524 6a4 4 0 0 1 4 4 4 4 0 0 1 -4 4 4 4 0 0 1 -4-4 4 4 0 0 1 4-4z" fill="#c2c2c2"/></svg>

<svg xmlns="http://www.w3.org/2000/svg" width="64" height="64" version="1.1">
 <rect style="opacity:0.2" width="50" height="32" x="7" y="24" rx="2.5" ry="2.5"/>
 <path style="fill:#3f3f3f" d="M 7,44.5 C 7,45.885 8.115,47 9.5,47 H 54.5 C 55.885,47 57,45.885 57,44.5 V 17.5 C 57,16.115 55.885,15 54.5,15 H 29 V 12.5 C 29,11.115 27.885,10 26.5,10 H 9.5 C 8.115,10 7,11.115 7,12.5"/>
 <rect style="opacity:0.2" width="50" height="32" x="7" y="22" rx="2.5" ry="2.5"/>
 <rect style="fill:#dcdcdc" width="44" height="20" x="10" y="18" rx="2.5" ry="2.5"/>
 <rect style="fill:#4f4f4f" width="50" height="32" x="7" y="23" rx="2.5" ry="2.5"/>
 <path style="opacity:0.1;fill:#ffffff" d="M 9.5,10 C 8.115,10 7,11.115 7,12.5 V 13.5 C 7,12.115 8.115,11 9.5,11 H 26.5 C 27.885,11 29,12.115 29,13.5 V 12.5 C 29,11.115 27.885,10 26.5,10 Z M 29,15 V 16 H 54.5 C 55.89,16 57,17.115 57,18.5 V 17.5 C 57,16.115 55.89,15 54.5,15 Z"/>
 <path style="fill:#c2c2c2" d="M 29.476,29 V 29.004 L 29.254,31.637 A 7.9283,7.8567 0 0 0 26.937,32.965 L 24.523,31.836 22,36.168 24.195,37.68 A 7.9283,7.8567 0 0 0 24.07,39.004 7.9283,7.8567 0 0 0 24.187,40.336 L 22,41.836 24.523,46.168 26.933,45.039 A 7.9283,7.8567 0 0 0 29.257,46.363 L 29.476,49 H 34.523 L 34.746,46.367 A 7.9283,7.8567 0 0 0 37.062,45.039 L 39.476,46.164 42,41.836 39.809,40.328 A 7.9283,7.8567 0 0 0 39.926,39 7.9283,7.8567 0 0 0 39.809,37.672 L 41.997,36.164 39.477,31.836 37.063,32.961 A 7.9283,7.8567 0 0 0 34.743,31.641 L 34.524,29 H 29.477 Z M 32,35 A 4,4 0 0 1 36,39 4,4 0 0 1 32,43 4,4 0 0 1 28,39 4,4 0 0 1 32,35 Z"/>
</svg>
